Numix-Light/24x24/status/screencloud-uploading.svg

<?xml version="1.0" encoding="UTF-8" standalone="no"?>
<svg
   xmlns:dc="http://purl.org/dc/elements/1.1/"
   xmlns:cc="http://creativecommons.org/ns#"
   xmlns:rdf="http://www.w3.org/1999/02/22-rdf-syntax-ns#"
   xmlns:svg="http://www.w3.org/2000/svg"
   xmlns="http://www.w3.org/2000/svg"
   xmlns:sodipodi="http://sodipodi.sourceforge.net/DTD/sodipodi-0.dtd"
   xmlns:inkscape="http://www.inkscape.org/namespaces/inkscape"
   width="24"
   height="24"
   viewBox="0 0 24 24"
   id="svg3017"
   version="1.1"
   inkscape:version="0.48.5 r10040"
   sodipodi:docname="screencloud-uploading.svg">
  <metadata
     id="metadata3055">
    <rdf:RDF>
      <cc:Work
         rdf:about="">
        <dc:format>image/svg+xml</dc:format>
        <dc:type
           rdf:resource="http://purl.org/dc/dcmitype/StillImage" />
      </cc:Work>
    </rdf:RDF>
  </metadata>
  <sodipodi:namedview
     pagecolor="#ffffff"
     bordercolor="#666666"
     borderopacity="1"
     objecttolerance="10"
     gridtolerance="10"
     guidetolerance="10"
     inkscape:pageopacity="0"
     inkscape:pageshadow="2"
     inkscape:window-width="1280"
     inkscape:window-height="998"
     id="namedview3053"
     showgrid="false"
     inkscape:zoom="9.8333333"
     inkscape:cx="12"
     inkscape:cy="16.067797"
     inkscape:window-x="0"
     inkscape:window-y="0"
     inkscape:window-maximized="1"
     inkscape:current-layer="svg3017" />
  <defs
     id="defs3019">
    <filter
       id="0"
       filterUnits="objectBoundingBox"
       x="0"
       y="0"
       width="24"
       height="24">
      <feColorMatrix
         type="matrix"
         in="SourceGraphic"
         values="0 0 0 0 1 0 0 0 0 1 0 0 0 0 1 0 0 0 1 0"
         id="feColorMatrix3022" />
    </filter>
    <mask
       id="1">
      <g
         filter="url(#0)"
         id="g3025">
        <rect
           width="24"
           height="24"
           fill-opacity="0.302"
           id="rect3027" />
      </g>
    </mask>
    <clipPath
       id="2">
      <rect
         width="24"
         height="24"
         id="rect3030" />
    </clipPath>
    <g
       id="3"
       clip-path="url(#2)">
      <path
         d="M 8.828125 9.375 C 5.601562 9.375 3 11.976562 3 15.203125 C 3 15.335938 2.992188 15.484375 3 15.613281 C 1.863281 16.160156 1.089844 17.273438 1.089844 18.546875 C 1.089844 20.367188 2.667969 21.816406 4.636719 21.816406 L 19.363281 21.816406 C 21.332031 21.816406 22.910156 20.367188 22.910156 18.546875 C 22.910156 17.191406 22.050781 16.015625 20.796875 15.511719 C 20.828125 15.308594 20.828125 15.109375 20.828125 14.898438 C 20.828125 12.585938 18.949219 10.703125 16.636719 10.703125 C 15.472656 10.703125 14.429688 11.167969 13.671875 11.933594 C 12.617188 10.386719 10.839844 9.375 8.828125 9.375 Z M 6.410156 11.148438 C 7.039062 11.148438 7.566406 11.636719 7.566406 12.238281 C 7.566406 12.839844 7.039062 13.328125 6.410156 13.328125 C 5.777344 13.328125 5.285156 12.839844 5.285156 12.238281 C 5.285156 11.636719 5.777344 11.148438 6.410156 11.148438 Z M 11.964844 12 L 15.273438 16.808594 L 13.261719 16.808594 L 13.261719 20.726562 L 10.601562 20.726562 L 10.601562 16.808594 L 8.726562 16.808594 Z "
         id="path3033" />
      <path
         d="M 18.96875 10.617188 L 18.53125 10.203125 L 17.941406 10.328125 L 18.199219 9.785156 L 17.894531 9.261719 L 18.496094 9.339844 L 18.898438 8.890625 L 19.007812 9.484375 L 19.558594 9.730469 L 19.03125 10.019531 Z "
         id="path3035" />
      <path
         d="M 19.453125 9.515625 L 19.476562 9.234375 L 19.257812 9.054688 L 19.53125 8.992188 L 19.632812 8.726562 L 19.78125 8.96875 L 20.0625 8.984375 L 19.878906 9.199219 L 19.949219 9.472656 L 19.691406 9.363281 Z "
         id="path3037" />
      <path
         d="M 19.714844 11.15625 L 19.660156 10.726562 L 19.277344 10.527344 L 19.671875 10.34375 L 19.742188 9.917969 L 20.035156 10.234375 L 20.460938 10.171875 L 20.253906 10.546875 L 20.445312 10.933594 L 20.023438 10.851562 Z "
         id="path3039" />
    </g>
  </defs>
  <path
     style="fill:#353535;fill-opacity:1"
     inkscape:connector-curvature="0"
     id="path3045"
     d="M 8.828125,8.285156 C 5.601562,8.285156 3,10.886719 3,14.113281 c 0,0.132813 -0.00781,0.277344 0,0.410157 -1.136719,0.546874 -1.910156,1.660156 -1.910156,2.929687 0,1.824219 1.578125,3.273437 3.546875,3.273437 l 14.726562,0 c 1.96875,0 3.546875,-1.449218 3.546875,-3.273437 0,-1.351563 -0.859375,-2.527344 -2.113281,-3.03125 0.03125,-0.207031 0.03125,-0.402344 0.03125,-0.613281 0,-2.316406 -1.878906,-4.195313 -4.191406,-4.195313 -1.164063,0 -2.207031,0.464844 -2.964844,1.226563 C 12.617188,9.292969 10.839844,8.285156 8.828125,8.285156 z m -2.417969,1.773438 c 0.628906,0 1.15625,0.488281 1.15625,1.089844 0,0.601562 -0.527344,1.089843 -1.15625,1.089843 -0.632812,0 -1.125,-0.488281 -1.125,-1.089843 0,-0.601563 0.492188,-1.089844 1.125,-1.089844 z m 5.554688,0.851562 3.308594,4.804688 -2.011719,0 0,3.921875 -2.660157,0 0,-3.921875 -1.875,0 z" />
  <path
     style="fill:#353535;fill-opacity:1"
     inkscape:connector-curvature="0"
     id="path3047"
     d="m 18.96875,9.527344 -0.4375,-0.414063 -0.589844,0.125 0.257813,-0.542969 -0.304688,-0.523437 0.601563,0.078125 0.402344,-0.449219 0.109374,0.59375 0.550782,0.242188 -0.527344,0.289062 z" />
  <path
     style="fill:#353535;fill-opacity:1"
     inkscape:connector-curvature="0"
     id="path3049"
     d="m 19.453125,8.425781 0.02344,-0.28125 -0.21875,-0.179687 0.273438,-0.066406 0.101562,-0.261719 0.148438,0.242187 0.28125,0.015625 -0.183594,0.214844 0.07031,0.273437 -0.257813,-0.109374 z" />
  <path
     style="fill:#353535;fill-opacity:1"
     inkscape:connector-curvature="0"
     id="path3051"
     d="M 19.714844,10.0625 19.660156,9.636719 19.277344,9.4375 19.671875,9.253906 19.742188,8.828125 20.035156,9.144531 20.460938,9.078125 20.253906,9.457031 20.445312,9.84375 20.023438,9.761719 z" />
</svg>

<svg xmlns="http://www.w3.org/2000/svg" xmlns:xlink="http://www.w3.org/1999/xlink" width="24" height="24" viewBox="0 0 24 24">
 <defs>
  <filter id="0" filterUnits="objectBoundingBox" x="0" y="0" width="24" height="24">
   <feColorMatrix type="matrix" in="SourceGraphic" values="0 0 0 0 1 0 0 0 0 1 0 0 0 0 1 0 0 0 1 0"/>
  </filter>
  <mask id="1">
   <g filter="url(#0)">
    <rect width="24" height="24" fill-opacity="0.302"/>
   </g>
  </mask>
  <clipPath id="2">
   <rect width="24" height="24"/>
  </clipPath>
  <g id="3" clip-path="url(#2)">
   <path d="M 8.828125 9.375 C 5.601562 9.375 3 11.976562 3 15.203125 C 3 15.335938 2.992188 15.484375 3 15.613281 C 1.863281 16.160156 1.089844 17.273438 1.089844 18.546875 C 1.089844 20.367188 2.667969 21.816406 4.636719 21.816406 L 19.363281 21.816406 C 21.332031 21.816406 22.910156 20.367188 22.910156 18.546875 C 22.910156 17.191406 22.050781 16.015625 20.796875 15.511719 C 20.828125 15.308594 20.828125 15.109375 20.828125 14.898438 C 20.828125 12.585938 18.949219 10.703125 16.636719 10.703125 C 15.472656 10.703125 14.429688 11.167969 13.671875 11.933594 C 12.617188 10.386719 10.839844 9.375 8.828125 9.375 Z M 6.410156 11.148438 C 7.039062 11.148438 7.566406 11.636719 7.566406 12.238281 C 7.566406 12.839844 7.039062 13.328125 6.410156 13.328125 C 5.777344 13.328125 5.285156 12.839844 5.285156 12.238281 C 5.285156 11.636719 5.777344 11.148438 6.410156 11.148438 Z M 11.964844 12 L 15.273438 16.808594 L 13.261719 16.808594 L 13.261719 20.726562 L 10.601562 20.726562 L 10.601562 16.808594 L 8.726562 16.808594 Z "/>
   <path d="M 18.96875 10.617188 L 18.53125 10.203125 L 17.941406 10.328125 L 18.199219 9.785156 L 17.894531 9.261719 L 18.496094 9.339844 L 18.898438 8.890625 L 19.007812 9.484375 L 19.558594 9.730469 L 19.03125 10.019531 Z "/>
   <path d="M 19.453125 9.515625 L 19.476562 9.234375 L 19.257812 9.054688 L 19.53125 8.992188 L 19.632812 8.726562 L 19.78125 8.96875 L 20.0625 8.984375 L 19.878906 9.199219 L 19.949219 9.472656 L 19.691406 9.363281 Z "/>
   <path d="M 19.714844 11.15625 L 19.660156 10.726562 L 19.277344 10.527344 L 19.671875 10.34375 L 19.742188 9.917969 L 20.035156 10.234375 L 20.460938 10.171875 L 20.253906 10.546875 L 20.445312 10.933594 L 20.023438 10.851562 Z "/>
  </g>
 </defs>
 <g>
  <use xlink:href="#3" mask="url(#1)"/>
  <path d="M 8.828125 8.285156 C 5.601562 8.285156 3 10.886719 3 14.113281 C 3 14.246094 2.992188 14.390625 3 14.523438 C 1.863281 15.070312 1.089844 16.183594 1.089844 17.453125 C 1.089844 19.277344 2.667969 20.726562 4.636719 20.726562 L 19.363281 20.726562 C 21.332031 20.726562 22.910156 19.277344 22.910156 17.453125 C 22.910156 16.101562 22.050781 14.925781 20.796875 14.421875 C 20.828125 14.214844 20.828125 14.019531 20.828125 13.808594 C 20.828125 11.492188 18.949219 9.613281 16.636719 9.613281 C 15.472656 9.613281 14.429688 10.078125 13.671875 10.839844 C 12.617188 9.292969 10.839844 8.285156 8.828125 8.285156 Z M 6.410156 10.058594 C 7.039062 10.058594 7.566406 10.546875 7.566406 11.148438 C 7.566406 11.75 7.039062 12.238281 6.410156 12.238281 C 5.777344 12.238281 5.285156 11.75 5.285156 11.148438 C 5.285156 10.546875 5.777344 10.058594 6.410156 10.058594 Z M 11.964844 10.910156 L 15.273438 15.714844 L 13.261719 15.714844 L 13.261719 19.636719 L 10.601562 19.636719 L 10.601562 15.714844 L 8.726562 15.714844 Z " fill="#353535"/>
  <path d="M 18.96875 9.527344 L 18.53125 9.113281 L 17.941406 9.238281 L 18.199219 8.695312 L 17.894531 8.171875 L 18.496094 8.25 L 18.898438 7.800781 L 19.007812 8.394531 L 19.558594 8.636719 L 19.03125 8.925781 Z " fill="#353535"/>
  <path d="M 19.453125 8.425781 L 19.476562 8.144531 L 19.257812 7.964844 L 19.53125 7.898438 L 19.632812 7.636719 L 19.78125 7.878906 L 20.0625 7.894531 L 19.878906 8.109375 L 19.949219 8.382812 L 19.691406 8.273438 Z " fill="#353535"/>
  <path d="M 19.714844 10.0625 L 19.660156 9.636719 L 19.277344 9.4375 L 19.671875 9.253906 L 19.742188 8.828125 L 20.035156 9.144531 L 20.460938 9.078125 L 20.253906 9.457031 L 20.445312 9.84375 L 20.023438 9.761719 Z " fill="#353535"/>
 </g>
</svg>
